app/images/icons/control-icon.svg

<?xml version="1.0" encoding="UTF-8" standalone="no"?>
<svg width="76px" height="76px" viewBox="0 0 76 76" version="1.1" xmlns="http://www.w3.org/2000/svg" xmlns:xlink="http://www.w3.org/1999/xlink" xmlns:sketch="http://www.bohemiancoding.com/sketch/ns">
    <!-- Generator: Sketch 3.1 (8751) - http://www.bohemiancoding.com/sketch -->
    <title>Group</title>
    <desc>Created with Sketch.</desc>
    <defs></defs>
    <g id="Page-1" stroke="none" stroke-width="1" fill="none" fill-rule="evenodd" sketch:type="MSPage">
        <g id="Group" sketch:type="MSLayerGroup" fill="#1B1A19">
            <path d="M2.53333333,2.53333333 L73.4666667,2.53333333 L73.4666667,73.4666667 L2.53333333,73.4666667 L2.53333333,2.53333333 Z M74.7333333,0 L1.26666667,0 C0.57,0 0,0.633333333 0,1.26666667 L0,74.7333333 C0,75.4933333 0.57,76 1.26666667,76 L74.7333333,76 C75.43,76 76,75.4933333 76,74.7333333 L76,1.26666667 C76,0.633333333 75.43,0 74.7333333,0 L74.7333333,0 Z" id="Fill-1011" sketch:type="MSShapeGroup"></path>
            <path d="M50.6666667,35.9733333 L58.2666667,35.9733333 L58.2666667,38.5066667 L50.6666667,38.5066667 L50.6666667,35.9733333 Z M49.4,41.04 L53.2,41.04 L53.2,46.4866667 C53.2,47.2466667 53.77,47.7533333 54.4666667,47.7533333 C55.1633333,47.7533333 55.7333333,47.2466667 55.7333333,46.4866667 L55.7333333,41.04 L59.5333333,41.04 C60.23,41.04 60.8,40.5333333 60.8,39.7733333 L60.8,34.7066667 C60.8,34.0733333 60.23,33.44 59.5333333,33.44 L55.7333333,33.44 L55.7333333,11.4 C55.7333333,10.7666667 55.1633333,10.1333333 54.4666667,10.1333333 C53.77,10.1333333 53.2,10.7666667 53.2,11.4 L53.2,33.44 L49.4,33.44 C48.7033333,33.44 48.1333333,34.0733333 48.1333333,34.7066667 L48.1333333,39.7733333 C48.1333333,40.5333333 48.7033333,41.04 49.4,41.04 L49.4,41.04 Z" id="Fill-1012" sketch:type="MSShapeGroup"></path>
            <path d="M34.2,20.7733333 L41.8,20.7733333 L41.8,23.3066667 L34.2,23.3066667 L34.2,20.7733333 Z M32.9333333,25.84 L36.7333333,25.84 L36.7333333,46.4866667 C36.7333333,47.2466667 37.3033333,47.7533333 38,47.7533333 C38.6966667,47.7533333 39.2666667,47.2466667 39.2666667,46.4866667 L39.2666667,25.84 L43.0666667,25.84 C43.7633333,25.84 44.3333333,25.3333333 44.3333333,24.5733333 L44.3333333,19.5066667 C44.3333333,18.8733333 43.7633333,18.24 43.0666667,18.24 L39.2666667,18.24 L39.2666667,11.4 C39.2666667,10.7666667 38.6966667,10.1333333 38,10.1333333 C37.3033333,10.1333333 36.7333333,10.7666667 36.7333333,11.4 L36.7333333,18.24 L32.9333333,18.24 C32.2366667,18.24 31.6666667,18.8733333 31.6666667,19.5066667 L31.6666667,24.5733333 C31.6666667,25.3333333 32.2366667,25.84 32.9333333,25.84 L32.9333333,25.84 Z" id="Fill-1013" sketch:type="MSShapeGroup"></path>
            <path d="M17.7333333,30.9066667 L25.3333333,30.9066667 L25.3333333,33.44 L17.7333333,33.44 L17.7333333,30.9066667 Z M16.4666667,35.9733333 L20.2666667,35.9733333 L20.2666667,46.4866667 C20.2666667,47.2466667 20.8366667,47.7533333 21.5333333,47.7533333 C22.23,47.7533333 22.8,47.2466667 22.8,46.4866667 L22.8,35.9733333 L26.6,35.9733333 C27.2966667,35.9733333 27.8666667,35.4666667 27.8666667,34.7066667 L27.8666667,29.64 C27.8666667,29.0066667 27.2966667,28.3733333 26.6,28.3733333 L22.8,28.3733333 L22.8,11.4 C22.8,10.7666667 22.23,10.1333333 21.5333333,10.1333333 C20.8366667,10.1333333 20.2666667,10.7666667 20.2666667,11.4 L20.2666667,28.3733333 L16.4666667,28.3733333 C15.77,28.3733333 15.2,29.0066667 15.2,29.64 L15.2,34.7066667 C15.2,35.4666667 15.77,35.9733333 16.4666667,35.9733333 L16.4666667,35.9733333 Z" id="Fill-1014" sketch:type="MSShapeGroup"></path>
            <path d="M54.4666667,55.7333333 C56.5566667,55.7333333 58.2666667,57.5079333 58.2666667,59.5333333 C58.2666667,61.6879333 56.5566667,63.3333333 54.4666667,63.3333333 C52.3766667,63.3333333 50.6666667,61.6879333 50.6666667,59.5333333 C50.6666667,57.5079333 52.3766667,55.7333333 54.4666667,55.7333333 L54.4666667,55.7333333 Z M54.4666667,65.8666667 C57.9626667,65.8666667 60.8,63.08 60.8,59.5333333 C60.8,56.1133333 57.9626667,53.2 54.4666667,53.2 C50.9706667,53.2 48.1333333,56.1133333 48.1333333,59.5333333 C48.1333333,63.08 50.9706667,65.8666667 54.4666667,65.8666667 L54.4666667,65.8666667 Z" id="Fill-1015" sketch:type="MSShapeGroup"></path>
            <path d="M38,55.7333333 C40.09,55.7333333 41.8,57.5079333 41.8,59.5333333 C41.8,61.6879333 40.09,63.3333333 38,63.3333333 C35.91,63.3333333 34.2,61.6879333 34.2,59.5333333 C34.2,57.5079333 35.91,55.7333333 38,55.7333333 L38,55.7333333 Z M38,65.8666667 C41.496,65.8666667 44.3333333,63.08 44.3333333,59.5333333 C44.3333333,56.1133333 41.496,53.2 38,53.2 C34.504,53.2 31.6666667,56.1133333 31.6666667,59.5333333 C31.6666667,63.08 34.504,65.8666667 38,65.8666667 L38,65.8666667 Z" id="Fill-1016" sketch:type="MSShapeGroup"></path>
            <path d="M21.5333333,55.7333333 C23.6233333,55.7333333 25.3333333,57.5079333 25.3333333,59.5333333 C25.3333333,61.6879333 23.6233333,63.3333333 21.5333333,63.3333333 C19.4433333,63.3333333 17.7333333,61.6879333 17.7333333,59.5333333 C17.7333333,57.5079333 19.4433333,55.7333333 21.5333333,55.7333333 L21.5333333,55.7333333 Z M21.5333333,65.8666667 C25.0293333,65.8666667 27.8666667,63.08 27.8666667,59.5333333 C27.8666667,56.1133333 25.0293333,53.2 21.5333333,53.2 C18.0373333,53.2 15.2,56.1133333 15.2,59.5333333 C15.2,63.08 18.0373333,65.8666667 21.5333333,65.8666667 L21.5333333,65.8666667 Z" id="Fill-1017" sketch:type="MSShapeGroup"></path>
        </g>
    </g>
</svg>

<svg width="76" height="76" viewBox="0 0 76 76" xmlns="http://www.w3.org/2000/svg">
    <desc>
        Created with Sketch.
    </desc>
    <g fill="#1B1A19">
        <path d="M2.533 2.533h70.934v70.934H2.533V2.533zM74.733 0H1.267C.57 0 0 .633 0 1.267v73.466C0 75.493.57 76 1.267 76h73.466C75.43 76 76 75.493 76 74.733V1.267C76 .633 75.43 0 74.733 0z"/>
        <path d="M50.667 35.973h7.6v2.534h-7.6v-2.534zM49.4 41.04h3.8v5.447c0 .76.57 1.266 1.267 1.266.696 0 1.266-.506 1.266-1.266V41.04h3.8c.697 0 1.267-.507 1.267-1.267v-5.066c0-.634-.57-1.267-1.267-1.267h-3.8V11.4c0-.633-.57-1.267-1.266-1.267-.697 0-1.267.634-1.267 1.267v22.04h-3.8c-.697 0-1.267.633-1.267 1.267v5.066c0 .76.57 1.267 1.267 1.267z"/>
        <path d="M34.2 20.773h7.6v2.534h-7.6v-2.534zm-1.267 5.067h3.8v20.647c0 .76.57 1.266 1.267 1.266s1.267-.506 1.267-1.266V25.84h3.8c.696 0 1.266-.507 1.266-1.267v-5.066c0-.634-.57-1.267-1.266-1.267h-3.8V11.4c0-.633-.57-1.267-1.267-1.267s-1.267.634-1.267 1.267v6.84h-3.8c-.696 0-1.266.633-1.266 1.267v5.066c0 .76.57 1.267 1.266 1.267z"/>
        <path d="M17.733 30.907h7.6v2.533h-7.6v-2.533zm-1.266 5.066h3.8v10.514c0 .76.57 1.266 1.266 1.266.697 0 1.267-.506 1.267-1.266V35.973h3.8c.697 0 1.267-.506 1.267-1.266V29.64c0-.633-.57-1.267-1.267-1.267h-3.8V11.4c0-.633-.57-1.267-1.267-1.267-.696 0-1.266.634-1.266 1.267v16.973h-3.8c-.697 0-1.267.634-1.267 1.267v5.067c0 .76.57 1.266 1.267 1.266z"/>
        <path d="M54.467 55.733c2.09 0 3.8 1.775 3.8 3.8 0 2.155-1.71 3.8-3.8 3.8s-3.8-1.645-3.8-3.8c0-2.025 1.71-3.8 3.8-3.8zm0 10.134c3.496 0 6.333-2.787 6.333-6.334 0-3.42-2.837-6.333-6.333-6.333s-6.334 2.913-6.334 6.333c0 3.547 2.838 6.334 6.334 6.334z"/>
        <path d="M38 55.733c2.09 0 3.8 1.775 3.8 3.8 0 2.155-1.71 3.8-3.8 3.8s-3.8-1.645-3.8-3.8c0-2.025 1.71-3.8 3.8-3.8zm0 10.134c3.496 0 6.333-2.787 6.333-6.334 0-3.42-2.837-6.333-6.333-6.333s-6.333 2.913-6.333 6.333c0 3.547 2.837 6.334 6.333 6.334z"/>
        <path d="M21.533 55.733c2.09 0 3.8 1.775 3.8 3.8 0 2.155-1.71 3.8-3.8 3.8s-3.8-1.645-3.8-3.8c0-2.025 1.71-3.8 3.8-3.8zm0 10.134c3.496 0 6.334-2.787 6.334-6.334 0-3.42-2.838-6.333-6.334-6.333-3.496 0-6.333 2.913-6.333 6.333 0 3.547 2.837 6.334 6.333 6.334z"/>
    </g>
</svg>
